svgs/light/folder-arrow-down.svg

<svg xmlns="http://www.w3.org/2000/svg" viewBox="0 0 512 512"><!-- Font Awesome Pro 6.0.0-alpha2 by @fontawesome - https://fontawesome.com License - https://fontawesome.com/license (Commercial License) --><path d="M448 96H272L226.746 50.746C214.742 38.742 198.465 32 181.49 32H64C28.654 32 0 60.654 0 96V416C0 451.346 28.654 480 64 480H448C483.346 480 512 451.346 512 416V160C512 124.654 483.346 96 448 96ZM480 416C480 433.645 465.645 448 448 448H64C46.355 448 32 433.645 32 416V96C32 78.355 46.355 64 64 64H181.49C190.039 64 198.074 67.328 204.117 73.375L249.373 118.627L258.746 128H448C465.645 128 480 142.355 480 160V416ZM244.688 379.312C250.938 385.562 261.063 385.562 267.312 379.312L347.312 299.312C353.562 293.062 353.562 282.937 347.312 276.688S330.937 270.438 324.688 276.688L272 329.375V208C272 199.156 264.844 192 256 192S240 199.156 240 208V329.375L187.312 276.688C184.188 273.562 180.094 272 176 272S167.812 273.562 164.688 276.688C158.438 282.938 158.438 293.063 164.688 299.312L244.688 379.312Z"/></svg>

<svg xmlns="http://www.w3.org/2000/svg" viewBox="0 0 512 512"><!--! Font Awesome Pro 6.4.0 by @fontawesome - https://fontawesome.com License - https://fontawesome.com/license (Commercial License) Copyright 2023 Fonticons, Inc. --><path d="M32 96c0-17.7 14.3-32 32-32H188.1c8.5 0 16.6 3.4 22.6 9.4l35.9 35.9c12 12 28.3 18.7 45.3 18.7H448c17.7 0 32 14.3 32 32V416c0 17.7-14.3 32-32 32H64c-17.7 0-32-14.3-32-32V96zM64 32C28.7 32 0 60.7 0 96V416c0 35.3 28.7 64 64 64H448c35.3 0 64-28.7 64-64V160c0-35.3-28.7-64-64-64H291.9c-8.5 0-16.6-3.4-22.6-9.4L233.4 50.7c-12-12-28.3-18.7-45.3-18.7H64zM272 208c0-8.8-7.2-16-16-16s-16 7.2-16 16V329.4l-52.7-52.7c-6.2-6.2-16.4-6.2-22.6 0s-6.2 16.4 0 22.6l80 80c6.2 6.2 16.4 6.2 22.6 0l80-80c6.2-6.2 6.2-16.4 0-22.6s-16.4-6.2-22.6 0L272 329.4V208z"/></svg>
